X:1
T:Title
%%score { ( 1 3 5 ) | ( 2 4 ) }
L:1/8
M:4/4
K:Db
V:1 treble nm="Grand Piano"
V:3 treble 
V:5 treble 
V:2 bass 
V:4 bass 
V:1
 z4 z2[Q:1/4=100] A2 | F2 D2 C3 D | [A,DF]4[K:bass] [G,CE]2 [F,A,D]2 | %3
 [B,DG]2 [A,DF]2 [CEB]3 [CEB] | [DA]6 [CGA]2 | [DFd]2 A2 G3 F | F4 E2 B2 | [DB]2 [DE]2 [CG]3 C | %8
 z2 A,2 D2 F2 | F4 z4 | [=A,CG]4 [B,F]4 | A2 A>A A2 A2 | z4 z2 c2 | d2 A2 G2 F2 | F4 E2 [DB]2 | %15
 [DB]3 [CE] [CF]2 [CG]2 | F6[K:bass][K:treble] z2 | A2 d2 f3 e | d2 c2 B2 =A2 | [DB]4 [DE]4 | %20
 G6 z2 |[M:3/4] D6 |] %22
V:2
 z4 z2 A,2 | F,2 D,2 C,3 D, | A,,4 A,,2 A,,2 | A,,2 A,,2 G,3 G, | F,6 E,2 | %5
 D,2 [F,D]2 [B,D]3 [A,B,D] | [G,B,D]4 [G,B,D]2 [G,D]2 | [G,,E,]2 [G,,E,]2 [A,,E,]3 [A,,G,A,] | %8
 D,2- [D,F,]2 B,2 [A,C]2 | [=G,B,]2 [D,G,]2 [C,A,]2 [C,A,]2 | E,3 E, D,2 D,2 | %11
 [F,_C=D]2 [F,CD]>[F,CD] [F,CD]2 [F,CD]2 | [E,C]4 [C,B,]4 | [A,F]2 [F,A,D]2 [F,A,D]2 [F,A,D]2 | %14
 [G,B,D]4 [G,B,D]2 [G,,G,]2 | [A,,G,]3 [A,,G,] [A,,A,]2 [A,,A,]2 | [A,D-]4 D2 z2 | %17
 [F,DF]2 [F,A,D]2 [F,=A,C]3 [F,A,C] | F2 E2 [F,B,D]2 [F,CE]2 | [B,,B,]4 [G,B,]4 | %20
 [A,,E,]6 [A,,G,A,]2 |[M:3/4] [D,F,A,]6 |] %22
V:3
 x8 | x8 | x4[K:bass] x4 | x8 | x8 | x8 | x8 | x8 | D4 z4 | z2 z E E2 E2 | x8 | x8 | =G6 z2 | x8 | %14
 x8 | x8 | z2[K:bass] F,2 A,2[K:treble] A2 | x8 | x8 | x8 | D2 C2 B,2 C2 |[M:3/4] x6 |] %22
V:4
 x8 | x8 | x8 | x8 | x8 | x8 | x8 | x8 | [F,A,]2 z2 z4 | x8 | x8 | x8 | x8 | x8 | x8 | x8 | %16
 D,2 z2 z2 [G,CE]2 | x8 | [F,=A,]4 z4 | x8 | x8 |[M:3/4] x6 |] %22
V:5
 x8 | x8 | x4[K:bass] x4 | x8 | x8 | x8 | x8 | x8 | x8 | z2 B,2 z4 | x8 | x8 | z4 _F4 | x8 | x8 | %15
 x8 | x2[K:bass] x4[K:treble] x2 | x8 | x8 | x8 | x8 |[M:3/4] x6 |] %22

